assets/icons/work.svg

<svg width="24px" height="24px" viewBox="0 0 24 24" fill="none" xmlns="http://www.w3.org/2000/svg">
<g id="Iconly/Curved/Work">
<g id="Work">
<path id="Stroke 1" d="M11.9612 16.5167V13.8887" stroke="#130F26" stroke-width="1.5" stroke-linecap="round" stroke-linejoin="round"/>
<path id="Stroke 2" d="M21.0895 11.4775L21.0605 11.4985C18.6385 12.9905 15.4405 13.8915 11.9565 13.8915C8.47252 13.8915 5.28352 12.9905 2.86252 11.4985L2.83252 11.4775" stroke="#130F26" stroke-width="1.5" stroke-linecap="round" stroke-linejoin="round"/>
<path id="Stroke 4" fill-rule="evenodd" clip-rule="evenodd" d="M2.75024 13.3507C2.75024 7.19871 5.05324 5.14771 11.9612 5.14771C18.8702 5.14771 21.1722 7.19871 21.1722 13.3507C21.1722 19.5027 18.8702 21.5537 11.9612 21.5537C5.05324 21.5537 2.75024 19.5027 2.75024 13.3507Z" stroke="#130F26" stroke-width="1.5" stroke-linecap="round" stroke-linejoin="round"/>
<path id="Stroke 6" d="M15.2239 5.3692V4.7392C15.2239 3.4752 14.3009 2.4502 13.1639 2.4502H10.7589C9.62185 2.4502 8.69885 3.4752 8.69885 4.7392V5.3692" stroke="#130F26" stroke-width="1.5" stroke-linecap="round" stroke-linejoin="round"/>
</g>
</g>
</svg>

<?xml version="1.0" encoding="utf-8"?>
<!-- Generator: Adobe Illustrator 27.9.6, SVG Export Plug-In . SVG Version: 9.03 Build 54986)  -->
<svg version="1.2" baseProfile="tiny" id="Layer_1" xmlns="http://www.w3.org/2000/svg" xmlns:xlink="http://www.w3.org/1999/xlink"
	 x="0px" y="0px" viewBox="0 0 24 24" overflow="visible" xml:space="preserve">
<g id="Iconly_x2F_Curved_x2F_Work">
	<g id="Work">
		<path id="Stroke_1" fill="none" stroke="#130F26" stroke-width="1.5" stroke-linecap="round" stroke-linejoin="round" d="
			M11.961,16.517v-2.628"/>
		<path id="Stroke_2" fill="none" stroke="#130F26" stroke-width="1.5" stroke-linecap="round" stroke-linejoin="round" d="
			M21.09,11.477l-0.029,0.021c-2.422,1.492-5.62,2.393-9.104,2.393c-3.484,0-6.673-0.901-9.094-2.393l-0.03-0.021"/>
		<path id="Stroke_4" fill="none" stroke="#130F26" stroke-width="1.5" stroke-linecap="round" stroke-linejoin="round" d="
			M2.75,13.351c0-6.152,2.303-8.203,9.211-8.203c6.909,0,9.211,2.051,9.211,8.203c0,6.152-2.302,8.203-9.211,8.203
			C5.053,21.554,2.75,19.503,2.75,13.351z"/>
		<path id="Stroke_6" fill="none" stroke="#130F26" stroke-width="1.5" stroke-linecap="round" stroke-linejoin="round" d="
			M15.224,5.369v-0.63c0-1.264-0.923-2.289-2.06-2.289h-2.405c-1.137,0-2.06,1.025-2.06,2.289v0.63"/>
	</g>
</g>
</svg>
